X:1
T:Title
%%score { ( 1 2 ) | ( 3 4 ) }
L:1/8
M:4/4
K:Ab
V:1 treble nm="Grand Piano"
V:2 treble 
V:3 bass 
V:4 bass 
V:1
 z4 z2[Q:1/4=100] E2 | A2 B2 c2 [Ad]2 | [Ge]4 c2 A2 | [Af]2 [EAe]2 [FAd]2 [EGd]2 |[M:3/4] [EAc]6 | %5
[M:1/4] c2 |[M:4/4] B2 E2 F2 G2 | [EA]2 [Fc]2 [GB]2 [G,E]2 | [CEA]2 [B,EG]2 [B,EF]2 [B,=DF]2 | %9
[M:3/4] [G,E]6 |[M:1/4] [EB]2 |[M:4/4] [FB]2 [F=A]2 [FB]2 [Ec]2 | [Dd]4 [Fd]2 [Ec]2 | %13
 [B,DB]2 [B,F]2 [B,FB]2 [B,FA]2 |[M:3/4] [B,EG]6 |[M:1/4] [G,E]2 | %16
[M:4/4] [F,B,F]2 [B,EG]2 [A,EA]2 [DGB]2 | [CAc]2 [Ad]2 [Ae]2 [A,A]-[A,EA] | %18
 d-[Gd] [EAc]2 [EAB]2 .[EGB]2 |[M:7/4] [CA]6 z2 z2 z4 |[M:4/4] [DFA]4 [CEA]4 |] %21
V:2
 z4 z2 z G, | x8 | x8 | x8 |[M:3/4] x6 |[M:1/4] x2 |[M:4/4] x8 | x8 | x8 |[M:3/4] x6 |[M:1/4] x2 | %11
[M:4/4] x8 | x8 | x8 |[M:3/4] x6 |[M:1/4] x2 |[M:4/4] x8 | z4 z2 .F2 | .F2 z2 z4 |[M:7/4] x14 | %20
[M:4/4] x8 |] %21
V:3
 z4 z2 [A,C]2 | [F,A,C]2 [E,G,E]2 [A,E]2 [F,A,]2 | [E,B,]4 [A,A]2 [F,C]2 | [D,D]2 C,2 B,,2 E,2 | %4
[M:3/4] A,,6 |[M:1/4] [A,E]2 |[M:4/4] [A,B,E]2 [G,B,]2 [F,A,=D]2 [E,B,E]2 | %7
 [C,A,]2 [=D,A,]2 [E,G,]2 C,2 | A,,2 E,2 B,,2 B,,2 |[M:3/4] E,6 |[M:1/4] [E,_G,]2 | %11
[M:4/4] [D,F,]2 [E,C]2 [D,B,]2 [C,=A,]2 | [B,,B,]4 [B,,B,]2 [C,=A,]2 | D,2 D,2 =D,2 D,2 | %14
[M:3/4] E,6 |[M:1/4] E,2 |[M:4/4] =D,2 _D,2 C,2 B,,2 | A,,2 [F,A,]2 [C,A,]2 D,C, | %18
 z D A,,2 E,2 z D |[M:7/4] A,,6 z2 z2 z4 |[M:4/4] D,4 A,,4 |] %21
V:4
 x8 | x8 | x8 | x8 |[M:3/4] x6 |[M:1/4] x2 |[M:4/4] x8 | x8 | x8 |[M:3/4] x6 |[M:1/4] x2 | %11
[M:4/4] x8 | x8 | x8 |[M:3/4] x6 |[M:1/4] x2 |[M:4/4] x8 | x8 | B,,4 z2 E,2 |[M:7/4] x14 | %20
[M:4/4] x8 |] %21

